X: 4178
T: Blue Ribbon, The
R: polka
M: 2/4
K: Gmajor
D2 G/A/B/c/|dd Bd|cc Ac|B/c/B/A/ GE|
D2 G/A/B/c/|dd Bd|cA B/c/B/A/|GB GE|
DE/F/ G/A/B/c/|dd Bd|cc Ac|B/c/B/A/ G/A/G/E/|
DE/F/ G/A/B/c/|dd Bd|cA B/c/B/A/|GB G/A/B/c/|
dB GF/G/|A2 D/E/F/D/|GF Dc|BG G/A/B/c/|
dB G/A/B/G/|A2 D/E/F/D/|GF DB,|C3 B/c/|
dG G/F/G/G/|AD D/E/F/D/|GF Dc|BG G/A/B/c/|
dB G/A/B/G/|AD D/E/F/D/|GF DB,|C4||

